X: 16
T: No_110_Tobacco_Dance_Song_(b).krn
N: Derived from No_110_Tobacco_Dance_Song_(b).krn
%%abc-version 2.0
%%abcx-abcm2ps-target-version 5.9.1 (29 Sep 2008)
%%abc-creator hum2abc beta
%%abcx-conversion-date 2019/03/15 08:35:44
%%humdrum-veritas 3034097538
%%humdrum-veritas-data 2102383015
%%linebreak <none>
%%barnumbers 0
L: 1/8
M: 2/4
K: C clef=bass
[K:clef=bass][M:2/4]z2z C, | 
C,G, G, z | 
CF, F, z | 
D,C, C, z | 
z G, G,^F, | 
F, z F,F, | 
D,2C,C, ||  
[M:3/4]C,2z D, D,F, ||  
[M:2/4]C,2C,C, | 
A,,2G,,G,, ||  
[M:3/4]G,,2z G,, G,,C, ||  
[M:2/4]C,2F,F, | 
C,2C,C, | 
C,4 |]  



